X: 34183
T: Reel Of Marquette, The
R: reel
M: 4/4
K: Dmajor
|:FA A/B/A ABdf|edBc d3 c|B z B/d/B BAGB|AGFA GE E/F/E|
F2 F/F/F Adfd|edBc decd|B/c/d efgf ed|1 B/c/d ec dBAG:|2 edce d2 cd||
|:eA A/A/A eAfA|eAfA edfd|eA A/A/A BAGF|GFED CE A,2|
eA A/A/A eAfA|aAgA f3 z|gfed B/c/d ed|1 cABc d3 z:|2 cABc dBAG|F3||

